;FLAVOR:Marlin
;TIME:6482
;Filament used: 3.86813m
;Layer height: 0.2
;MINX:58.257
;MINY:34.457
;MINZ:0.2
;MAXX:161.743
;MAXY:185.543
;MAXZ:2.8
;Generated with Cura_SteamEngine 5.4.0
M82 ;absolute extrusion mode
; Ender 3 Custom Start G-code
G92 E0 ; Reset Extruder
G28 ; Home all axes
M104 S175 ; Start heating up the nozzle most of the way
M190 S60 ; Start heating the bed, wait until target temperature reached
M109 S200 ; Finish heating the nozzle
G1 Z2.0 F3000 ; Move Z Axis up little to prevent scratching of Heat Bed
G1 X0.1 Y20 Z0.3 F5000.0 ; Move to start position
G1 X0.1 Y200.0 Z0.3 F1500.0 E15 ; Draw the first line
G1 X0.4 Y200.0 Z0.3 F5000.0 ; Move to side a little
G1 X0.4 Y20 Z0.3 F1500.0 E30 ; Draw the second line
G92 E0 ; Reset Extruder
G1 Z2.0 F3000 ; Move Z Axis up little to prevent scratching of Heat Bed
G1 X5 Y20 Z0.3 F5000.0 ; Move over to prevent blob squish
G92 E0
G92 E0
G1 F1500 E-6.5
;LAYER_COUNT:14
;LAYER:0
M107
G0 F6000 X59.878 Y39.734 Z0.2
;TYPE:SKIRT
G1 F1500 E0
G1 F1200 X60.421 Y38.926 E0.03238
G1 X60.988 Y38.222 E0.06244
G1 X61.713 Y37.47 E0.09719
G1 X62.449 Y36.833 E0.12956
G1 X63.181 Y36.303 E0.15962
G1 X64.078 Y35.768 E0.19436
G1 X64.956 Y35.347 E0.22674
G1 X65.869 Y35.005 E0.25917
G1 X66.806 Y34.746 E0.2915
G1 X67.773 Y34.568 E0.32421
G1 X68.912 Y34.472 E0.36222
G1 X69.569 Y34.457 E0.38408
G1 X150.047 Y34.457 E3.06079
G1 X150.927 Y34.47 E3.09006
G1 X151.899 Y34.529 E3.12245
G1 X152.862 Y34.675 E3.15485
G1 X153.809 Y34.906 E3.18727
G1 X154.697 Y35.206 E3.21844
G1 X155.589 Y35.596 E3.25082
G1 X156.472 Y36.083 E3.28436
G1 X157.223 Y36.585 E3.31441
G1 X158.038 Y37.243 E3.34925
G1 X158.736 Y37.921 E3.38161
G1 X159.372 Y38.658 E3.41399
G1 X159.942 Y39.448 E3.44639
G1 X160.404 Y40.224 E3.47643
G1 X160.858 Y41.166 E3.51121
G1 X161.187 Y42.044 E3.54239
G1 X161.456 Y43.016 E3.57594
G1 X161.633 Y43.982 E3.6086
G1 X161.728 Y45.112 E3.64632
G1 X161.743 Y45.787 E3.66877
G1 X161.742 Y51.569 E3.86108
G1 X161.718 Y53.231 E3.91637
G1 X161.685 Y54.433 E3.95636
G1 X161.687 Y56.978 E4.04101
G1 X161.743 Y59.386 E4.12112
G1 X161.742 Y65.169 E4.31346
G1 X161.718 Y66.831 E4.36875
G1 X161.685 Y68.033 E4.40874
G1 X161.687 Y70.578 E4.49339
G1 X161.743 Y72.986 E4.5735
G1 X161.742 Y78.769 E4.76584
G1 X161.718 Y80.431 E4.82113
G1 X161.685 Y81.633 E4.86112
G1 X161.687 Y84.178 E4.94577
G1 X161.743 Y86.586 E5.02588
G1 X161.742 Y92.37 E5.21826
G1 X161.718 Y94.033 E5.27358
G1 X161.685 Y95.229 E5.31337
G1 X161.687 Y97.773 E5.39798
G1 X161.743 Y100.186 E5.47826
G1 X161.742 Y105.97 E5.67064
G1 X161.718 Y107.633 E5.72596
G1 X161.685 Y108.829 E5.76575
G1 X161.687 Y111.373 E5.85036
G1 X161.743 Y113.786 E5.93064
G1 X161.742 Y119.57 E6.12302
G1 X161.718 Y121.233 E6.17834
G1 X161.685 Y122.429 E6.21813
G1 X161.687 Y124.973 E6.30274
G1 X161.743 Y127.386 E6.38302
G1 X161.742 Y133.17 E6.5754
G1 X161.718 Y134.832 E6.63068
G1 X161.685 Y136.034 E6.67068
G1 X161.687 Y138.579 E6.75532
G1 X161.743 Y140.987 E6.83544
G1 X161.742 Y146.77 E7.02778
G1 X161.718 Y148.432 E7.08306
G1 X161.685 Y149.634 E7.12306
G1 X161.687 Y152.179 E7.2077
G1 X161.743 Y154.587 E7.28782
G1 X161.742 Y160.37 E7.48016
G1 X161.718 Y162.032 E7.53544
G1 X161.685 Y163.234 E7.57544
G1 X161.687 Y165.779 E7.66008
G1 X161.743 Y168.187 E7.7402
G1 X161.742 Y173.943 E7.93164
G1 X161.731 Y174.706 E7.95702
G1 X161.674 Y175.679 E7.98944
G1 X161.529 Y176.642 E8.02183
G1 X161.3 Y177.588 E8.0542
G1 X160.989 Y178.512 E8.08663
G1 X160.597 Y179.403 E8.11901
G1 X160.129 Y180.255 E8.15134
G1 X159.607 Y181.036 E8.18258
G1 X158.974 Y181.821 E8.21612
G1 X158.349 Y182.472 E8.24614
G1 X157.56 Y183.16 E8.28095
G1 X156.8 Y183.71 E8.31216
G1 X155.933 Y184.227 E8.34573
G1 X155.055 Y184.649 E8.37813
G1 X154.144 Y184.991 E8.4105
G1 X153.205 Y185.252 E8.44291
G1 X152.239 Y185.43 E8.47558
G1 X151.088 Y185.528 E8.514
G1 X150.413 Y185.543 E8.53646
G1 X69.821 Y185.542 E11.21696
G1 X69.088 Y185.531 E11.24134
G1 X68.116 Y185.474 E11.27373
G1 X67.153 Y185.328 E11.30612
G1 X66.207 Y185.099 E11.3385
G1 X65.283 Y184.787 E11.37093
G1 X64.393 Y184.395 E11.40328
G1 X63.57 Y183.944 E11.43449
G1 X62.731 Y183.383 E11.46806
G1 X62.027 Y182.817 E11.4981
G1 X61.274 Y182.092 E11.53287
G1 X60.637 Y181.356 E11.56525
G1 X60.107 Y180.625 E11.59528
G1 X59.571 Y179.728 E11.63003
G1 X59.149 Y178.85 E11.66243
G1 X58.807 Y177.938 E11.69483
G1 X58.547 Y177 E11.7272
G1 X58.369 Y176.031 E11.75997
G1 X58.271 Y174.852 E11.79932
G1 X58.257 Y174.201 E11.82098
G1 X58.258 Y168.384 E12.01445
G1 X58.28 Y166.867 E12.06491
G1 X58.315 Y165.568 E12.10813
G1 X58.313 Y163.022 E12.19281
G1 X58.257 Y160.614 E12.27293
G1 X58.258 Y154.784 E12.46683
G1 X58.28 Y153.267 E12.51729
G1 X58.315 Y151.968 E12.56051
G1 X58.313 Y149.422 E12.64519
G1 X58.257 Y147.014 E12.72531
G1 X58.258 Y141.184 E12.91921
G1 X58.28 Y139.667 E12.96967
G1 X58.315 Y138.368 E13.01289
G1 X58.313 Y135.822 E13.09757
G1 X58.257 Y133.414 E13.17769
G1 X58.258 Y127.596 E13.37119
G1 X58.282 Y125.945 E13.42611
G1 X58.315 Y124.765 E13.46537
G1 X58.313 Y122.227 E13.54979
G1 X58.257 Y119.814 E13.63007
G1 X58.258 Y113.996 E13.82357
G1 X58.282 Y112.345 E13.87849
G1 X58.315 Y111.165 E13.91776
G1 X58.313 Y108.627 E14.00217
G1 X58.257 Y106.214 E14.08245
G1 X58.258 Y100.396 E14.27596
G1 X58.282 Y98.745 E14.33087
G1 X58.315 Y97.565 E14.37014
G1 X58.313 Y95.027 E14.45455
G1 X58.257 Y92.614 E14.53483
G1 X58.258 Y86.783 E14.72877
G1 X58.28 Y85.266 E14.77923
G1 X58.315 Y83.967 E14.82245
G1 X58.313 Y81.421 E14.90713
G1 X58.257 Y79.013 E14.98724
G1 X58.258 Y73.183 E15.18115
G1 X58.28 Y71.666 E15.23161
G1 X58.315 Y70.367 E15.27483
G1 X58.313 Y67.821 E15.35951
G1 X58.257 Y65.413 E15.43962
G1 X58.258 Y59.583 E15.63353
G1 X58.28 Y58.066 E15.68399
G1 X58.315 Y56.767 E15.72721
G1 X58.313 Y54.221 E15.81189
G1 X58.257 Y51.813 E15.892
G1 X58.258 Y45.982 E16.08594
G1 X58.269 Y45.282 E16.10923
G1 X58.327 Y44.309 E16.14165
G1 X58.473 Y43.346 E16.17404
G1 X58.703 Y42.4 E16.20642
G1 X59.016 Y41.477 E16.23884
G1 X59.408 Y40.587 E16.27119
G1 X59.878 Y39.734 E16.30358
G0 F6000 X60.21 Y39.957
G1 F1200 X60.733 Y39.177 E16.33481
G1 X61.3 Y38.473 E16.36488
G1 X61.975 Y37.772 E16.39725
G1 X62.684 Y37.157 E16.42846
G1 X63.416 Y36.627 E16.45852
G1 X64.252 Y36.128 E16.4909
G1 X65.097 Y35.721 E16.5221
G1 X65.976 Y35.39 E16.55334
G1 X66.879 Y35.139 E16.58451
G1 X67.807 Y34.967 E16.6159
G1 X68.946 Y34.871 E16.65392
G1 X69.578 Y34.857 E16.67494
G1 X150.041 Y34.857 E19.35115
G1 X150.903 Y34.869 E19.37983
G1 X151.84 Y34.925 E19.41105
G1 X152.768 Y35.064 E19.44226
G1 X153.681 Y35.285 E19.4735
G1 X154.537 Y35.573 E19.50354
G1 X155.429 Y35.963 E19.53592
G1 X156.25 Y36.416 E19.56711
G1 X157.001 Y36.918 E19.59715
G1 X157.76 Y37.53 E19.62958
G1 X158.434 Y38.183 E19.66079
G1 X159.048 Y38.892 E19.69199
G1 X159.598 Y39.653 E19.72322
G1 X160.06 Y40.429 E19.75326
G1 X160.483 Y41.306 E19.78564
G1 X160.812 Y42.184 E19.81683
G1 X161.063 Y43.089 E19.84806
G1 X161.234 Y44.016 E19.87941
G1 X161.329 Y45.146 E19.91713
G1 X161.343 Y45.787 E19.93846
G1 X161.342 Y51.563 E20.13057
G1 X161.318 Y53.22 E20.18568
G1 X161.285 Y54.422 E20.22568
G1 X161.287 Y56.978 E20.31069
G1 X161.343 Y59.386 E20.3908
G1 X161.342 Y65.163 E20.58295
G1 X161.318 Y66.82 E20.63806
G1 X161.285 Y68.022 E20.67806
G1 X161.287 Y70.578 E20.76307
G1 X161.343 Y72.986 E20.84318
G1 X161.342 Y78.763 E21.03533
G1 X161.318 Y80.42 E21.09045
G1 X161.285 Y81.622 E21.13044
G1 X161.287 Y84.178 E21.21545
G1 X161.343 Y86.586 E21.29556
G1 X161.342 Y92.364 E21.48774
G1 X161.318 Y94.022 E21.54289
G1 X161.285 Y95.218 E21.58269
G1 X161.287 Y97.773 E21.66767
G1 X161.343 Y100.186 E21.74794
G1 X161.342 Y105.964 E21.94012
G1 X161.318 Y107.622 E21.99527
G1 X161.285 Y108.818 E22.03507
G1 X161.287 Y111.373 E22.12005
G1 X161.343 Y113.786 E22.20032
G1 X161.342 Y119.564 E22.3925
G1 X161.318 Y121.222 E22.44765
G1 X161.285 Y122.418 E22.48745
G1 X161.287 Y124.973 E22.57243
G1 X161.343 Y127.386 E22.65271
G1 X161.342 Y133.164 E22.84488
G1 X161.318 Y134.821 E22.9
G1 X161.285 Y136.023 E22.93999
G1 X161.287 Y138.579 E23.02501
G1 X161.343 Y140.987 E23.10512
G1 X161.342 Y146.764 E23.29726
G1 X161.318 Y148.421 E23.35238
G1 X161.285 Y149.623 E23.39237
G1 X161.287 Y152.179 E23.47739
G1 X161.343 Y154.587 E23.5575
G1 X161.342 Y160.364 E23.74964
G1 X161.318 Y162.021 E23.80476
G1 X161.285 Y163.223 E23.84475
G1 X161.287 Y165.779 E23.92977
G1 X161.343 Y168.187 E24.00988
G1 X161.342 Y173.938 E24.20116
G1 X161.332 Y174.683 E24.22594
G1 X161.278 Y175.62 E24.25716
G1 X161.14 Y176.549 E24.28839
G1 X160.921 Y177.461 E24.31959
G1 X160.623 Y178.351 E24.35081
G1 X160.246 Y179.211 E24.38204
G1 X159.796 Y180.033 E24.41321
G1 X159.274 Y180.814 E24.44445
G1 X158.685 Y181.544 E24.47565
G1 X158.06 Y182.195 E24.50566
G1 X157.325 Y182.836 E24.5381
G1 X156.565 Y183.386 E24.5693
G1 X155.759 Y183.867 E24.60052
G1 X154.914 Y184.275 E24.63173
G1 X154.036 Y184.606 E24.66294
G1 X153.132 Y184.859 E24.69416
G1 X152.205 Y185.031 E24.72552
G1 X151.054 Y185.129 E24.76394
G1 X150.413 Y185.143 E24.78527
G1 X69.827 Y185.142 E27.46557
G1 X69.111 Y185.132 E27.48938
G1 X68.175 Y185.078 E27.52057
G1 X67.246 Y184.939 E27.55181
G1 X66.334 Y184.72 E27.58301
G1 X65.444 Y184.421 E27.61423
G1 X64.585 Y184.044 E27.64543
G1 X63.762 Y183.593 E27.67665
G1 X62.982 Y183.071 E27.70786
G1 X62.278 Y182.505 E27.73791
G1 X61.576 Y181.83 E27.7703
G1 X60.961 Y181.121 E27.80152
G1 X60.431 Y180.39 E27.83155
G1 X59.931 Y179.554 E27.86395
G1 X59.523 Y178.709 E27.89516
G1 X59.192 Y177.831 E27.92636
G1 X58.94 Y176.927 E27.95758
G1 X58.768 Y175.998 E27.989
G1 X58.67 Y174.819 E28.02835
G1 X58.657 Y174.201 E28.04891
G1 X58.658 Y168.39 E28.24218
G1 X58.68 Y166.878 E28.29248
G1 X58.715 Y165.579 E28.3357
G1 X58.713 Y163.022 E28.42075
G1 X58.657 Y160.614 E28.50086
G1 X58.658 Y154.79 E28.69457
G1 X58.68 Y153.278 E28.74486
G1 X58.715 Y151.979 E28.78808
G1 X58.713 Y149.422 E28.87313
G1 X58.657 Y147.014 E28.95324
G1 X58.658 Y141.19 E29.14695
G1 X58.68 Y139.678 E29.19724
G1 X58.715 Y138.379 E29.24046
G1 X58.713 Y135.822 E29.32551
G1 X58.657 Y133.414 E29.40562
G1 X58.658 Y127.602 E29.59893
G1 X58.682 Y125.956 E29.65368
G1 X58.715 Y124.776 E29.69294
G1 X58.713 Y122.227 E29.77772
G1 X58.657 Y119.814 E29.858
G1 X58.658 Y114.002 E30.05131
G1 X58.682 Y112.356 E30.10606
G1 X58.715 Y111.176 E30.14532
G1 X58.713 Y108.627 E30.2301
G1 X58.657 Y106.214 E30.31038
G1 X58.658 Y100.402 E30.50369
G1 X58.682 Y98.756 E30.55844
G1 X58.715 Y97.576 E30.5977
G1 X58.713 Y95.027 E30.68248
G1 X58.657 Y92.614 E30.76276
G1 X58.658 Y86.789 E30.9565
G1 X58.68 Y85.277 E31.0068
G1 X58.715 Y83.978 E31.05002
G1 X58.713 Y81.421 E31.13506
G1 X58.657 Y79.013 E31.21517
G1 X58.658 Y73.189 E31.40888
G1 X58.68 Y71.677 E31.45918
G1 X58.715 Y70.378 E31.5024
G1 X58.713 Y67.821 E31.58744
G1 X58.657 Y65.413 E31.66756
G1 X58.658 Y59.589 E31.86126
G1 X58.68 Y58.077 E31.91156
G1 X58.715 Y56.778 E31.95478
G1 X58.713 Y54.221 E32.03982
G1 X58.657 Y51.813 E32.11994
G1 X58.658 Y45.988 E32.31368
G1 X58.668 Y45.305 E32.3364
G1 X58.723 Y44.368 E32.36761
G1 X58.862 Y43.44 E32.39882
G1 X59.082 Y42.528 E32.43003
G1 X59.382 Y41.638 E32.46126
G1 X59.759 Y40.779 E32.49247
G1 X60.21 Y39.957 E32.52365
G0 F6000 X60.543 Y40.179
G1 F1200 X61.045 Y39.428 E32.5537
G1 X61.612 Y38.724 E32.58376
G1 X62.238 Y38.074 E32.61378
G1 X62.919 Y37.481 E32.64381
G1 X63.651 Y36.951 E32.67387
G1 X64.426 Y36.488 E32.70389
G1 X65.239 Y36.095 E32.73393
G1 X66.084 Y35.775 E32.76398
G1 X66.953 Y35.532 E32.79399
G1 X67.841 Y35.366 E32.82404
G1 X68.98 Y35.27 E32.86206
G1 X69.587 Y35.257 E32.88225
G1 X150.036 Y35.257 E35.55799
G1 X150.88 Y35.268 E35.58607
G1 X151.782 Y35.321 E35.61612
G1 X152.675 Y35.453 E35.64614
G1 X153.553 Y35.664 E35.67618
G1 X154.409 Y35.952 E35.70622
G1 X155.236 Y36.314 E35.73624
G1 X156.028 Y36.749 E35.7663
G1 X156.779 Y37.251 E35.79634
G1 X157.482 Y37.818 E35.82638
G1 X158.132 Y38.445 E35.85642
G1 X158.724 Y39.127 E35.88646
G1 X159.254 Y39.858 E35.91649
G1 X159.716 Y40.634 E35.94653
G1 X160.109 Y41.447 E35.97656
G1 X160.427 Y42.292 E36.00659
G1 X160.67 Y43.162 E36.03663
G1 X160.835 Y44.05 E36.06667
G1 X160.93 Y45.18 E36.10439
G1 X160.943 Y45.787 E36.12458
G1 X160.942 Y51.557 E36.31649
G1 X160.918 Y53.209 E36.37145
G1 X160.885 Y54.411 E36.41144
G1 X160.887 Y56.978 E36.49682
G1 X160.943 Y59.386 E36.57693
G1 X160.942 Y65.157 E36.76887
G1 X160.918 Y66.809 E36.82383
G1 X160.885 Y68.011 E36.86382
G1 X160.887 Y70.578 E36.9492
G1 X160.943 Y72.986 E37.02931
G1 X160.942 Y78.757 E37.22125
G1 X160.918 Y80.409 E37.27621
G1 X160.885 Y81.611 E37.3162
G1 X160.887 Y84.178 E37.40158
G1 X160.943 Y86.586 E37.48169
G1 X160.942 Y92.358 E37.67367
G1 X160.918 Y94.011 E37.72865
G1 X160.885 Y95.207 E37.76845
G1 X160.887 Y97.773 E37.85379
G1 X160.943 Y100.186 E37.93407
G1 X160.942 Y105.958 E38.12605
G1 X160.918 Y107.611 E38.18103
G1 X160.885 Y108.807 E38.22083
G1 X160.887 Y111.373 E38.30617
G1 X160.943 Y113.786 E38.38645
G1 X160.942 Y119.558 E38.57843
G1 X160.918 Y121.211 E38.63341
G1 X160.885 Y122.407 E38.67321
G1 X160.887 Y124.973 E38.75855
G1 X160.943 Y127.386 E38.83883
G1 X160.942 Y133.158 E39.03081
G1 X160.918 Y134.81 E39.08576
G1 X160.885 Y136.012 E39.12575
G1 X160.887 Y138.579 E39.21113
G1 X160.943 Y140.987 E39.29125
G1 X160.942 Y146.758 E39.48319
G1 X160.918 Y148.41 E39.53814
G1 X160.885 Y149.612 E39.57814
G1 X160.887 Y152.179 E39.66351
G1 X160.943 Y154.587 E39.74363
G1 X160.942 Y160.358 E39.93557
G1 X160.918 Y162.01 E39.99052
G1 X160.885 Y163.212 E40.03052
G1 X160.887 Y165.779 E40.11589
G1 X160.943 Y168.187 E40.19601
G1 X160.942 Y173.933 E40.38712
G1 X160.933 Y174.66 E40.4113
G1 X160.882 Y175.562 E40.44135
G1 X160.751 Y176.456 E40.4714
G1 X160.542 Y177.334 E40.50142
G1 X160.256 Y178.191 E40.53147
G1 X159.895 Y179.019 E40.56151
G1 X159.463 Y179.811 E40.59152
G1 X158.962 Y180.563 E40.62157
G1 X158.396 Y181.267 E40.65162
G1 X157.771 Y181.918 E40.68163
G1 X157.09 Y182.512 E40.71169
G1 X156.359 Y183.043 E40.74174
G1 X155.585 Y183.507 E40.77175
G1 X154.772 Y183.901 E40.8018
G1 X153.928 Y184.221 E40.83182
G1 X153.058 Y184.466 E40.86189
G1 X152.171 Y184.632 E40.8919
G1 X151.02 Y184.73 E40.93032
G1 X150.413 Y184.743 E40.95051
G1 X69.832 Y184.742 E43.63065
G1 X69.134 Y184.733 E43.65387
G1 X68.233 Y184.682 E43.68388
G1 X67.339 Y184.55 E43.71394
G1 X66.461 Y184.341 E43.74396
G1 X65.604 Y184.054 E43.77402
G1 X64.777 Y183.693 E43.80403
G1 X63.984 Y183.26 E43.83408
G1 X63.233 Y182.759 E43.86411
G1 X62.529 Y182.193 E43.89415
G1 X61.878 Y181.567 E43.92419
G1 X61.285 Y180.886 E43.95422
G1 X60.755 Y180.155 E43.98426
G1 X60.291 Y179.38 E44.0143
G1 X59.897 Y178.567 E44.04435
G1 X59.577 Y177.723 E44.07437
G1 X59.333 Y176.853 E44.10442
G1 X59.167 Y175.965 E44.13447
G1 X59.07 Y174.81 E44.17302
G1 X59.057 Y174.201 E44.19328
G1 X59.058 Y168.396 E44.38635
G1 X59.08 Y166.889 E44.43648
G1 X59.115 Y165.59 E44.4797
G1 X59.113 Y163.022 E44.56511
G1 X59.057 Y160.614 E44.64523
G1 X59.058 Y154.796 E44.83873
G1 X59.08 Y153.289 E44.88886
G1 X59.115 Y151.99 E44.93208
G1 X59.113 Y149.422 E45.0175
G1 X59.057 Y147.014 E45.09761
G1 X59.058 Y141.196 E45.29111
G1 X59.08 Y139.689 E45.34124
G1 X59.115 Y138.39 E45.38446
G1 X59.113 Y135.822 E45.46988
G1 X59.057 Y133.414 E45.54999
G1 X59.058 Y127.608 E45.7431
G1 X59.082 Y125.967 E45.79768
G1 X59.115 Y124.787 E45.83694
G1 X59.113 Y122.227 E45.92209
G1 X59.057 Y119.814 E46.00237
G1 X59.058 Y114.008 E46.19548
G1 X59.082 Y112.367 E46.25006
G1 X59.115 Y111.187 E46.28932
G1 X59.113 Y108.627 E46.37447
G1 X59.057 Y106.214 E46.45475
G1 X59.058 Y100.408 E46.64786
G1 X59.082 Y98.767 E46.70244
G1 X59.115 Y97.587 E46.74171
G1 X59.113 Y95.027 E46.82685
G1 X59.057 Y92.614 E46.90713
G1 X59.058 Y86.795 E47.10067
G1 X59.08 Y85.288 E47.1508
G1 X59.115 Y83.989 E47.19402
G1 X59.113 Y81.421 E47.27943
G1 X59.057 Y79.013 E47.35954
G1 X59.058 Y73.195 E47.55305
G1 X59.08 Y71.688 E47.60318
G1 X59.115 Y70.389 E47.6464
G1 X59.113 Y67.821 E47.73181
G1 X59.057 Y65.413 E47.81192
G1 X59.058 Y59.595 E48.00543
G1 X59.08 Y58.088 E48.05556
G1 X59.115 Y56.789 E48.09878
G1 X59.113 Y54.221 E48.18419
G1 X59.057 Y51.813 E48.2643
G1 X59.058 Y45.993 E48.45788
G1 X59.067 Y45.328 E48.48
G1 X59.119 Y44.426 E48.51005
