;FLAVOR:Marlin
;TIME:2378
;Filament used: 1.24984m
;Layer height: 0.2
;MINX:66.002
;MINY:72.917
;MINZ:0.2
;MAXX:154.002
;MAXY:147.083
;MAXZ:2.8
;Generated with Cura_SteamEngine 5.4.0
M82 ;absolute extrusion mode
; Ender 3 Custom Start G-code
G92 E0 ; Reset Extruder
G28 ; Home all axes
M104 S175 ; Start heating up the nozzle most of the way
M190 S60 ; Start heating the bed, wait until target temperature reached
M109 S200 ; Finish heating the nozzle
G1 Z2.0 F3000 ; Move Z Axis up little to prevent scratching of Heat Bed
G1 X0.1 Y20 Z0.3 F5000.0 ; Move to start position
G1 X0.1 Y200.0 Z0.3 F1500.0 E15 ; Draw the first line
G1 X0.4 Y200.0 Z0.3 F5000.0 ; Move to side a little
G1 X0.4 Y20 Z0.3 F1500.0 E30 ; Draw the second line
G92 E0 ; Reset Extruder
G1 Z2.0 F3000 ; Move Z Axis up little to prevent scratching of Heat Bed
G1 X5 Y20 Z0.3 F5000.0 ; Move over to prevent blob squish
G92 E0
G92 E0
G1 F1500 E-6.5
;LAYER_COUNT:14
;LAYER:0
M107
G0 F6000 X97.829 Y77.549 Z0.2
;TYPE:SKIRT
G1 F1500 E0
G1 F1200 X98.475 Y76.728 E0.03475
G1 X99.144 Y76.022 E0.0671
G1 X99.818 Y75.421 E0.09713
G1 X100.658 Y74.799 E0.1319
G1 X101.489 Y74.293 E0.16425
G1 X102.362 Y73.86 E0.19667
G1 X103.203 Y73.531 E0.2267
G1 X104.206 Y73.24 E0.26144
G1 X105.161 Y73.052 E0.29381
G1 X106.113 Y72.951 E0.32565
G1 X106.603 Y72.932 E0.34196
G1 X107.452 Y72.918 E0.3702
G1 X112.519 Y72.917 E0.53873
G1 X113.399 Y72.93 E0.56801
G1 X114.371 Y72.989 E0.60039
G1 X115.334 Y73.135 E0.63279
G1 X116.281 Y73.366 E0.66521
G1 X117.169 Y73.666 E0.69638
G1 X118.061 Y74.056 E0.72876
G1 X118.944 Y74.543 E0.7623
G1 X119.695 Y75.045 E0.79235
G1 X120.51 Y75.703 E0.82719
G1 X121.208 Y76.381 E0.85955
G1 X121.844 Y77.117 E0.89191
G1 X122.374 Y77.848 E0.92194
G1 X122.677 Y78.331 E0.9409
G1 X123.194 Y79.211 E0.97485
G1 X152.195 Y129.961 E2.91896
G1 X152.641 Y130.765 E2.94954
G1 X153.044 Y131.573 E2.97958
G1 X153.426 Y132.546 E3.01434
G1 X153.68 Y133.412 E3.04436
G1 X153.885 Y134.439 E3.07919
G1 X153.986 Y135.407 E3.11156
G1 X154.002 Y136.38 E3.14393
G1 X153.932 Y137.353 E3.17637
G1 X153.776 Y138.313 E3.20872
G1 X153.536 Y139.258 E3.24115
G1 X153.226 Y140.143 E3.27234
G1 X152.809 Y141.063 E3.30594
G1 X152.33 Y141.909 E3.33827
G1 X151.777 Y142.712 E3.3707
G1 X151.155 Y143.462 E3.40311
G1 X150.47 Y144.153 E3.43547
G1 X149.782 Y144.738 E3.46551
G1 X148.931 Y145.342 E3.50021
G1 X148.151 Y145.797 E3.53025
G1 X147.203 Y146.241 E3.56507
G1 X146.322 Y146.561 E3.59624
G1 X145.346 Y146.821 E3.62984
G1 X144.377 Y146.986 E3.66253
G1 X143.164 Y147.072 E3.70297
G1 X142.384 Y147.082 E3.72892
G1 X77.674 Y147.083 E5.88118
G1 X76.814 Y147.071 E5.90979
G1 X75.842 Y147.013 E5.94218
G1 X74.878 Y146.868 E5.9746
G1 X73.966 Y146.648 E6.0058
G1 X73.009 Y146.326 E6.03939
G1 X72.119 Y145.934 E6.07173
G1 X71.296 Y145.483 E6.10294
G1 X70.457 Y144.922 E6.13651
G1 X69.753 Y144.356 E6.16656
G1 X69 Y143.631 E6.20132
G1 X68.363 Y142.895 E6.2337
G1 X67.833 Y142.164 E6.26373
G1 X67.297 Y141.267 E6.29848
G1 X66.876 Y140.389 E6.33087
G1 X66.534 Y139.477 E6.36327
G1 X66.274 Y138.539 E6.39564
G1 X66.098 Y137.581 E6.42804
G1 X66.007 Y136.611 E6.46044
G1 X66.002 Y135.638 E6.4928
G1 X66.075 Y134.738 E6.52284
G1 X66.251 Y133.707 E6.55762
G1 X66.492 Y132.8 E6.58884
G1 X66.84 Y131.843 E6.62271
G1 X67.336 Y130.809 E6.66085
G1 X67.759 Y130.044 E6.68992
G1 X96.938 Y78.978 E8.6461
G1 X97.335 Y78.306 E8.67206
G1 X97.829 Y77.549 E8.70213
G0 F6000 X98.164 Y77.768
G1 F1200 X98.766 Y77.003 E8.73451
G1 X99.41 Y76.321 E8.7657
G1 X100.084 Y75.72 E8.79574
G1 X100.866 Y75.14 E8.82812
G1 X101.667 Y74.651 E8.85934
G1 X102.508 Y74.233 E8.89057
G1 X103.349 Y73.904 E8.92061
G1 X104.284 Y73.632 E8.953
G1 X105.204 Y73.45 E8.98419
G1 X106.129 Y73.351 E9.01513
G1 X106.61 Y73.332 E9.03114
G1 X107.452 Y73.318 E9.05915
G1 X112.513 Y73.317 E9.22748
G1 X113.375 Y73.329 E9.25615
G1 X114.312 Y73.385 E9.28737
G1 X115.24 Y73.524 E9.31858
G1 X116.153 Y73.745 E9.34982
G1 X117.009 Y74.033 E9.37986
G1 X117.901 Y74.423 E9.41224
G1 X118.722 Y74.876 E9.44343
G1 X119.473 Y75.378 E9.47348
G1 X120.232 Y75.99 E9.5059
G1 X120.906 Y76.643 E9.53712
G1 X121.52 Y77.352 E9.56831
G1 X122.05 Y78.083 E9.59834
G1 X122.332 Y78.534 E9.61603
G1 X122.847 Y79.409 E9.6498
G1 X151.845 Y130.155 E11.59376
G1 X152.283 Y130.944 E11.62377
G1 X152.686 Y131.752 E11.6538
G1 X153.042 Y132.659 E11.68621
G1 X153.296 Y133.525 E11.71623
G1 X153.487 Y134.481 E11.74865
G1 X153.586 Y135.414 E11.77986
G1 X153.603 Y136.352 E11.81106
G1 X153.537 Y137.289 E11.8423
G1 X153.388 Y138.215 E11.8735
G1 X153.158 Y139.126 E11.90475
G1 X152.848 Y140.011 E11.93594
G1 X152.461 Y140.866 E11.96715
G1 X152 Y141.683 E11.99835
G1 X151.469 Y142.457 E12.02957
G1 X150.871 Y143.181 E12.0608
G1 X150.211 Y143.848 E12.09201
G1 X149.523 Y144.433 E12.12205
G1 X148.729 Y144.996 E12.15442
G1 X147.949 Y145.451 E12.18446
G1 X147.066 Y145.865 E12.21689
G1 X146.185 Y146.185 E12.24807
G1 X145.278 Y146.427 E12.27929
G1 X144.348 Y146.587 E12.31068
G1 X143.159 Y146.672 E12.35033
G1 X142.384 Y146.682 E12.3761
G1 X77.679 Y146.683 E14.5282
G1 X76.837 Y146.672 E14.55621
G1 X75.901 Y146.617 E14.58739
G1 X74.972 Y146.479 E14.61863
G1 X74.06 Y146.259 E14.64984
G1 X73.17 Y145.96 E14.68106
G1 X72.311 Y145.583 E14.71226
G1 X71.488 Y145.132 E14.74348
G1 X70.708 Y144.61 E14.77469
G1 X70.004 Y144.044 E14.80474
G1 X69.302 Y143.369 E14.83713
G1 X68.687 Y142.66 E14.86835
G1 X68.157 Y141.929 E14.89838
G1 X67.657 Y141.093 E14.93078
G1 X67.25 Y140.248 E14.96197
G1 X66.919 Y139.369 E14.99321
G1 X66.667 Y138.466 E15.02439
G1 X66.496 Y137.543 E15.05561
G1 X66.407 Y136.608 E15.08685
G1 X66.401 Y135.67 E15.11805
G1 X66.474 Y134.77 E15.14808
G1 X66.638 Y133.81 E15.18048
G1 X66.879 Y132.903 E15.21169
G1 X67.201 Y132.016 E15.24308
G1 X67.697 Y130.982 E15.28122
G1 X68.106 Y130.242 E15.30934
G1 X97.283 Y79.181 E17.26534
G1 X97.67 Y78.525 E17.29067
G1 X98.164 Y77.768 E17.32074
G0 F6000 X99.057 Y77.277
G1 F1200 X99.676 Y76.62 E17.35076
G1 X100.35 Y76.019 E17.3808
G1 X101.075 Y75.481 E17.41083
G1 X101.845 Y75.009 E17.44086
G1 X102.654 Y74.606 E17.47093
G1 X103.495 Y74.277 E17.50096
G1 X104.362 Y74.024 E17.531
G1 X105.247 Y73.848 E17.56101
G1 X106.145 Y73.751 E17.59105
G1 X106.617 Y73.732 E17.60676
G1 X107.452 Y73.718 E17.63454
G1 X112.508 Y73.717 E17.8027
G1 X113.352 Y73.728 E17.83078
G1 X114.254 Y73.781 E17.86083
G1 X115.147 Y73.913 E17.89085
G1 X116.025 Y74.124 E17.92089
G1 X116.881 Y74.412 E17.95093
G1 X117.708 Y74.774 E17.98095
G1 X118.5 Y75.209 E18.01101
G1 X119.251 Y75.711 E18.04105
G1 X119.954 Y76.278 E18.07109
G1 X120.604 Y76.905 E18.10113
G1 X121.196 Y77.587 E18.13117
G1 X121.726 Y78.318 E18.1612
G1 X121.987 Y78.737 E18.17762
G1 X122.5 Y79.607 E18.21121
G1 X151.495 Y130.349 E20.155
G1 X151.925 Y131.123 E20.18444
G1 X152.328 Y131.931 E20.21448
G1 X152.658 Y132.772 E20.24452
G1 X152.912 Y133.638 E20.27454
G1 X153.089 Y134.524 E20.30459
G1 X153.186 Y135.422 E20.33463
G1 X153.204 Y136.325 E20.36467
G1 X153.142 Y137.226 E20.39471
G1 X153 Y138.118 E20.42475
G1 X152.78 Y138.994 E20.45479
G1 X152.483 Y139.847 E20.48483
G1 X152.112 Y140.67 E20.51486
G1 X151.67 Y141.457 E20.54488
G1 X151.16 Y142.203 E20.57494
G1 X150.586 Y142.9 E20.60497
G1 X149.952 Y143.543 E20.635
G1 X149.264 Y144.128 E20.66504
G1 X148.527 Y144.65 E20.69508
G1 X147.747 Y145.105 E20.72511
G1 X146.929 Y145.489 E20.75517
G1 X146.081 Y145.799 E20.7852
G1 X145.209 Y146.033 E20.81523
G1 X144.319 Y146.188 E20.84527
G1 X143.154 Y146.272 E20.88412
G1 X142.384 Y146.282 E20.90974
G1 X77.684 Y146.283 E23.06167
G1 X76.86 Y146.273 E23.08907
G1 X75.959 Y146.221 E23.11909
G1 X75.065 Y146.09 E23.14914
G1 X74.187 Y145.88 E23.17917
G1 X73.33 Y145.594 E23.20922
G1 X72.503 Y145.232 E23.23925
G1 X71.71 Y144.799 E23.2693
G1 X70.959 Y144.298 E23.29932
G1 X70.255 Y143.732 E23.32937
G1 X69.604 Y143.106 E23.35941
G1 X69.011 Y142.425 E23.38944
G1 X68.481 Y141.694 E23.41947
G1 X68.017 Y140.919 E23.44951
G1 X67.624 Y140.106 E23.47955
G1 X67.304 Y139.261 E23.5096
G1 X67.06 Y138.392 E23.53962
G1 X66.894 Y137.504 E23.56967
G1 X66.807 Y136.605 E23.59971
G1 X66.8 Y135.702 E23.62974
G1 X66.873 Y134.802 E23.65978
G1 X67.025 Y133.912 E23.68981
G1 X67.255 Y133.039 E23.71983
G1 X67.562 Y132.189 E23.74989
G1 X68.058 Y131.155 E23.78803
G1 X68.453 Y130.44 E23.8152
G1 X97.627 Y79.384 E25.77101
G1 X98.005 Y78.744 E25.79573
G1 X98.499 Y77.987 E25.8258
G1 X99.057 Y77.277 E25.85583
G1 F1500 E19.35583
;MESH:ShapeShiftProtoV2.stl
G0 F6000 X106.088 Y83.799
G0 X104.684 Y88.802
;TYPE:WALL-INNER
G1 F1500 E25.85583
G1 F1200 X115.315 Y88.802 E26.20942
G1 X112.865 Y84.518 E26.37356
G1 X107.135 Y84.517 E26.56414
G1 X104.684 Y88.802 E26.72833
G1 F1500 E20.22833
G0 F6000 X115.574 Y88.952
G0 X116.005 Y89.202
;TYPE:WALL-OUTER
G1 F1500 E26.72833
G1 F1200 X113.097 Y84.118 E26.92313
G1 X106.903 Y84.117 E27.12915
G1 X103.995 Y89.202 E27.32398
G1 X116.005 Y89.202 E27.72343
G0 F6000 X115.574 Y88.952
G0 X104.995 Y88.622
G0 X105.08 Y88.313
G0 X105.304 Y88.442
;TYPE:SKIN
G1 F1200 X107.344 Y84.878 E27.86002
G1 X112.654 Y84.879 E28.03663
G1 X114.694 Y88.441 E28.17315
G1 X105.304 Y88.442 E28.48547
G0 F6000 X105.694 Y88.158
G1 F1200 X105.777 Y88.241 E28.48937
G0 F6000 X105.901 Y87.799
G1 F1200 X106.343 Y88.241 E28.51016
G0 F6000 X106.908 Y88.241
G1 F1200 X106.107 Y87.439 E28.54786
G0 F6000 X106.312 Y87.079
G1 F1200 X107.474 Y88.241 E28.60252
G0 F6000 X108.04 Y88.241
G1 F1200 X106.518 Y86.719 E28.67411
G0 F6000 X106.724 Y86.359
G1 F1200 X108.605 Y88.241 E28.76261
G0 F6000 X109.171 Y88.241
G1 F1200 X106.93 Y86 E28.86802
G0 F6000 X107.136 Y85.64
G1 F1200 X109.737 Y88.241 E28.99036
G0 F6000 X110.302 Y88.24
G1 F1200 X107.342 Y85.28 E29.12959
G0 F6000 X107.705 Y85.078
G1 F1200 X110.867 Y88.24 E29.27832
G0 F6000 X111.433 Y88.24
G1 F1200 X108.271 Y85.078 E29.42705
G0 F6000 X108.837 Y85.078
G1 F1200 X111.999 Y88.24 E29.57578
G0 F6000 X112.565 Y88.24
G1 F1200 X109.402 Y85.078 E29.72454
G0 F6000 X109.968 Y85.078
G1 F1200 X113.13 Y88.24 E29.87327
G0 F6000 X113.696 Y88.24
G1 F1200 X110.534 Y85.079 E30.02198
G0 F6000 X111.1 Y85.079
G1 F1200 X114.262 Y88.24 E30.17068
G0 F6000 X114.262 Y88.702
G0 X115.004 Y88.622
G0 X114.105 Y86.889
G0 X113.705 Y87.118
G1 F1200 X111.666 Y85.079 E30.26659
G0 F6000 X112.231 Y85.079
G1 F1200 X112.947 Y85.794 E30.30025
G1 F1500 E23.80025
G0 F6000 X113.348 Y85.565
G0 X115.643 Y88.992
G0 X115.643 Y91.006
G0 X119.126 Y95.471
;TYPE:WALL-INNER
G1 F1500 E30.30025
G1 F1200 X116.675 Y91.186 E30.46443
G1 X103.325 Y91.186 E30.90846
G1 X100.874 Y95.471 E31.07264
G1 X119.126 Y95.471 E31.67971
G0 F6000 X119.816 Y95.871
;TYPE:WALL-OUTER
G1 F1200 X116.907 Y90.786 E31.87455
G1 X103.093 Y90.786 E32.33401
G1 X100.184 Y95.871 E32.52886
G1 X119.816 Y95.871 E33.18182
G0 F6000 X119.385 Y95.621
G0 X101.184 Y95.291
G0 X101.269 Y94.982
G0 X101.493 Y95.111
;TYPE:SKIN
G1 F1200 X103.534 Y91.546 E33.31845
G1 X116.466 Y91.547 E33.74857
G1 X118.506 Y95.111 E33.88515
G1 X101.493 Y95.111 E34.45101
G0 F6000 X101.992 Y94.638
G1 F1200 X102.264 Y94.91 E34.4638
G0 F6000 X102.83 Y94.91
G1 F1200 X102.198 Y94.279 E34.49351
G0 F6000 X102.404 Y93.919
G1 F1200 X103.395 Y94.91 E34.54012
G0 F6000 X103.961 Y94.91
G1 F1200 X102.61 Y93.559 E34.60367
G0 F6000 X102.816 Y93.199
G1 F1200 X104.527 Y94.91 E34.68415
G0 F6000 X105.093 Y94.91
G1 F1200 X103.021 Y92.839 E34.78158
G0 F6000 X103.228 Y92.48
G1 F1200 X105.658 Y94.91 E34.89588
G0 F6000 X106.224 Y94.91
G1 F1200 X103.434 Y92.12 E35.02712
G0 F6000 X103.639 Y91.76
G1 F1200 X106.79 Y94.91 E35.17531
G0 F6000 X107.355 Y94.91
G1 F1200 X104.191 Y91.746 E35.32413
G0 F6000 X104.757 Y91.746
G1 F1200 X107.921 Y94.91 E35.47296
G0 F6000 X108.487 Y94.91
G1 F1200 X105.322 Y91.746 E35.6218
G0 F6000 X105.888 Y91.746
G1 F1200 X109.052 Y94.91 E35.77063
G0 F6000 X109.618 Y94.91
G1 F1200 X106.454 Y91.746 E35.91945
G0 F6000 X107.019 Y91.746
G1 F1200 X110.184 Y94.91 E36.0683
G0 F6000 X110.749 Y94.91
G1 F1200 X107.585 Y91.746 E36.21713
G0 F6000 X108.151 Y91.746
G1 F1200 X111.315 Y94.91 E36.36595
G0 F6000 X111.881 Y94.91
G1 F1200 X108.716 Y91.746 E36.5148
G0 F6000 X109.282 Y91.746
G1 F1200 X112.446 Y94.91 E36.66363
G0 F6000 X113.012 Y94.91
G1 F1200 X109.848 Y91.746 E36.81245
G0 F6000 X110.414 Y91.747
G1 F1200 X113.578 Y94.91 E36.96125
G0 F6000 X114.144 Y94.91
G1 F1200 X110.98 Y91.747 E37.11005
G0 F6000 X111.546 Y91.747
G1 F1200 X114.709 Y94.91 E37.25883
G0 F6000 X115.275 Y94.91
G1 F1200 X112.111 Y91.747 E37.40763
G0 F6000 X112.677 Y91.747
G1 F1200 X115.841 Y94.91 E37.55643
G0 F6000 X116.406 Y94.91
G1 F1200 X113.243 Y91.747 E37.70521
G0 F6000 X113.808 Y91.747
G1 F1200 X116.972 Y94.91 E37.85401
G0 F6000 X117.538 Y94.91
G1 F1200 X114.374 Y91.747 E38.00281
G0 F6000 X114.94 Y91.747
G1 F1200 X118.103 Y94.91 E38.15159
G0 F6000 X118.103 Y95.371
G0 X118.816 Y95.291
G0 X117.715 Y93.206
G0 X117.478 Y93.719
G1 F1200 X115.505 Y91.747 E38.24437
G0 F6000 X116.071 Y91.747
G1 F1200 X116.72 Y92.396 E38.2749
G1 F1500 E31.7749
G0 F6000 X117.121 Y92.168
G0 X119.454 Y95.661
G0 X120.386 Y95.128
G0 X125.339 Y103.795
G0 X126.747 Y108.808
;TYPE:WALL-INNER
G1 F1500 E38.2749
G1 F1200 X124.297 Y104.524 E38.43904
G1 X95.703 Y104.523 E39.39008
G1 X93.252 Y108.808 E39.55427
G1 X126.747 Y108.808 E40.66832
G0 F6000 X127.437 Y109.208
;TYPE:WALL-OUTER
G1 F1200 X124.529 Y104.124 E40.86312
G1 X95.471 Y104.123 E41.82959
G1 X92.563 Y109.208 E42.02442
G1 X127.437 Y109.208 E43.18434
G1 F1500 E36.68434
G0 F6000 X127.006 Y108.958
G0 X93.873 Y108.708
G0 X93.873 Y108.448
;TYPE:SKIN
G1 F1500 E43.18434
G1 F1200 X95.913 Y104.884 E43.32092
G1 X124.086 Y104.885 E44.25796
G1 X126.126 Y108.447 E44.39449
G1 X93.873 Y108.448 E45.46722
G0 F6000 X94.382 Y107.958
G1 F1200 X94.67 Y108.246 E45.48077
G0 F6000 X95.235 Y108.246
G1 F1200 X94.588 Y107.599 E45.5112
G0 F6000 X94.794 Y107.239
G1 F1200 X95.801 Y108.246 E45.55857
G0 F6000 X96.367 Y108.246
G1 F1200 X95 Y106.879 E45.62287
G0 F6000 X95.206 Y106.519
G1 F1200 X96.933 Y108.246 E45.7041
G0 F6000 X97.498 Y108.246
G1 F1200 X95.412 Y106.16 E45.80222
G0 F6000 X95.618 Y105.8
G1 F1200 X98.064 Y108.246 E45.91727
G0 F6000 X98.63 Y108.246
G1 F1200 X95.824 Y105.44 E46.04926
G0 F6000 X96.032 Y105.083
G1 F1200 X99.195 Y108.246 E46.19804
G0 F6000 X99.761 Y108.246
G1 F1200 X96.598 Y105.083 E46.34682
G0 F6000 X97.164 Y105.083
G1 F1200 X100.327 Y108.246 E46.49559
G0 F6000 X100.892 Y108.246
G1 F1200 X97.729 Y105.083 E46.64437
G0 F6000 X98.295 Y105.083
G1 F1200 X101.458 Y108.246 E46.79315
G0 F6000 X102.024 Y108.246
G1 F1200 X98.861 Y105.083 E46.94193
G0 F6000 X99.426 Y105.083
G1 F1200 X102.589 Y108.246 E47.0907
G0 F6000 X103.155 Y108.246
G1 F1200 X99.992 Y105.083 E47.23948
G0 F6000 X100.558 Y105.083
G1 F1200 X103.721 Y108.246 E47.38826
G0 F6000 X104.286 Y108.246
G1 F1200 X101.124 Y105.083 E47.53701
G0 F6000 X101.689 Y105.083
G1 F1200 X104.852 Y108.246 E47.68579
G0 F6000 X105.418 Y108.246
G1 F1200 X102.255 Y105.083 E47.83457
G0 F6000 X102.821 Y105.083
G1 F1200 X105.983 Y108.246 E47.98332
G0 F6000 X106.549 Y108.246
G1 F1200 X103.386 Y105.083 E48.1321
G0 F6000 X103.952 Y105.083
G1 F1200 X107.115 Y108.246 E48.28088
G0 F6000 X107.681 Y108.246
G1 F1200 X104.518 Y105.083 E48.42966
G0 F6000 X105.083 Y105.083
G1 F1200 X108.246 Y108.246 E48.57844
G0 F6000 X108.812 Y108.246
G1 F1200 X105.65 Y105.084 E48.72717
G0 F6000 X106.215 Y105.084
G1 F1200 X109.378 Y108.246 E48.87592
G0 F6000 X109.943 Y108.246
G1 F1200 X106.781 Y105.084 E49.02465
G0 F6000 X107.347 Y105.084
G1 F1200 X110.509 Y108.246 E49.17338
G0 F6000 X111.075 Y108.246
G1 F1200 X107.912 Y105.084 E49.32214
G0 F6000 X108.478 Y105.084
G1 F1200 X111.64 Y108.246 E49.47087
G0 F6000 X112.206 Y108.246
G1 F1200 X109.044 Y105.084 E49.6196
G0 F6000 X109.61 Y105.084
G1 F1200 X112.772 Y108.246 E49.76833
G0 F6000 X113.337 Y108.246
G1 F1200 X110.175 Y105.084 E49.91706
G0 F6000 X110.741 Y105.084
G1 F1200 X113.903 Y108.246 E50.06579
G0 F6000 X114.469 Y108.246
G1 F1200 X111.307 Y105.084 E50.21452
G0 F6000 X111.872 Y105.084
G1 F1200 X115.034 Y108.246 E50.36325
G0 F6000 X115.6 Y108.246
G1 F1200 X112.438 Y105.084 E50.51198
G0 F6000 X113.004 Y105.084
G1 F1200 X116.166 Y108.246 E50.66071
G0 F6000 X116.732 Y108.246
G1 F1200 X113.569 Y105.084 E50.80947
